Yaru++/apps/16/gsconnect.svg

<svg viewBox="0 0 16 16" xmlns="http://www.w3.org/2000/svg">
  <g fill="#808080">
    <path d="m2 5c0-1.7059237.3619401-2 2-2h11v-1l-11.9986955-.0013c-1.0013045-.0001085-2.0013045 1.0013-2.0013045 2.0013045v8.9999955h-1v1h9v-1h-7z"/>
    <path d="m614.3983 306.64926c-.25774 0-.46794.032-.64674.115-.17243.0806-.31305.22137-.39804.3985-.16168.34-.14409.7365-.14409 1.2365v4.5c0 .5-.0176.898.14409 1.2375.0809.17.21971.314.39851.3975.17833.083.38853.115.64627.115h2.37774c.25775 0 .46794-.032.64675-.115.17833-.0835.31766-.228.39803-.3975.16169-.34.14409-.7375.14409-1.2375v-4.5c0-.5.0176-.897-.14409-1.2365-.0852-.17703-.22599-.31764-.39851-.398-.17833-.0835-.38852-.1155-.64627-.1155zm-.20861 1h2.82405v5.5702l-2.80805.0146z" transform="translate(-602.01374 -300.64926)"/>
  </g>
</svg>

<svg xmlns="http://www.w3.org/2000/svg" version="1.1" viewBox="0 0 16 16">
 <path d="M 2,5 C 2,3.2940763 2.3619401,3 4,3 H 15 V 2 L 3.0013045,1.9987 C 2,1.9985915 1,3 1,4.0000045 V 13 H 0 v 1 H 9 V 13 H 2 Z" style="fill:#808080"/>
 <g transform="translate(-602.01374,-300.64926)">
  <path d="m 614.3983,306.64926 c -0.25774,0 -0.46794,0.032 -0.64674,0.115 -0.17243,0.0806 -0.31305,0.22137 -0.39804,0.3985 -0.16168,0.34 -0.14409,0.7365 -0.14409,1.2365 v 4.5 c 0,0.5 -0.0176,0.898 0.14409,1.2375 0.0809,0.17 0.21971,0.314 0.39851,0.3975 0.17833,0.083 0.38853,0.115 0.64627,0.115 h 2.37774 c 0.25775,0 0.46794,-0.032 0.64675,-0.115 0.17833,-0.0835 0.31766,-0.228 0.39803,-0.3975 0.16169,-0.34 0.14409,-0.7375 0.14409,-1.2375 v -4.5 c 0,-0.5 0.0176,-0.897 -0.14409,-1.2365 -0.0852,-0.17703 -0.22599,-0.31764 -0.39851,-0.398 -0.17833,-0.0835 -0.38852,-0.1155 -0.64627,-0.1155 z m -0.20861,1 h 2.82405 v 5.5702 l -2.80805,0.0146 z" font-weight="400" overflow="visible" style="fill:#808080"/>
 </g>
</svg>
